X:41
T:Spanish Ladies (We'll Rant and We'll Roar)
Z:Digital Tradition
F://sniff.numachi.com/~rickheit/dtrad/
Z:edited by David Kidd
M:3/4
Q:125
L:1/8
K:G
D/D/| GG G(G A)B| cA GF DD/D/|
AA AA- AB|cB Ad- d(B/2c/2)|
dd dB GB| cA GF D(d/2c/2)|
BA Bc AG| FE FG- G |]
%Alternate tune for above song, but not-like Captain Kidd
